icons/svg/sport/rc_car.svg

<?xml version="1.0" encoding="UTF-8" standalone="no"?>
<!-- Created with Inkscape (http://www.inkscape.org/) -->

<svg
   xmlns:dc="http://purl.org/dc/elements/1.1/"
   xmlns:cc="http://creativecommons.org/ns#"
   xmlns:rdf="http://www.w3.org/1999/02/22-rdf-syntax-ns#"
   xmlns:svg="http://www.w3.org/2000/svg"
   xmlns="http://www.w3.org/2000/svg"
   xmlns:sodipodi="http://sodipodi.sourceforge.net/DTD/sodipodi-0.dtd"
   xmlns:inkscape="http://www.inkscape.org/namespaces/inkscape"
   version="1.0"
   width="580"
   height="580"
   id="svg2"
   sodipodi:version="0.32"
   inkscape:version="0.91 r"
   sodipodi:docname="rc_car.svg"
   inkscape:output_extension="org.inkscape.output.svg.inkscape">
  <metadata
     id="metadata2975">
    <rdf:RDF>
      <cc:Work
         rdf:about="">
        <dc:format>image/svg+xml</dc:format>
        <dc:type
           rdf:resource="http://purl.org/dc/dcmitype/StillImage" />
        <cc:license
           rdf:resource="http://web.resource.org/cc/PublicDomain" />
        <dc:language>en</dc:language>
      </cc:Work>
    </rdf:RDF>
  </metadata>
  <sodipodi:namedview
     inkscape:window-height="739"
     inkscape:window-width="1332"
     inkscape:pageshadow="2"
     inkscape:pageopacity="0.0"
     guidetolerance="10.0"
     gridtolerance="10.0"
     objecttolerance="10.0"
     borderopacity="1.0"
     bordercolor="#666666"
     pagecolor="#ffffff"
     id="base"
     inkscape:zoom="0.32586207"
     inkscape:cx="450.31862"
     inkscape:cy="126.24592"
     inkscape:window-x="34"
     inkscape:window-y="1024"
     inkscape:current-layer="svg2"
     showgrid="false"
     inkscape:window-maximized="1" />
  <defs
     id="defs4">
    <inkscape:perspective
       sodipodi:type="inkscape:persp3d"
       inkscape:vp_x="0 : 290 : 1"
       inkscape:vp_y="0 : 1000 : 0"
       inkscape:vp_z="580 : 290 : 1"
       inkscape:persp3d-origin="290 : 193.33333 : 1"
       id="perspective2441" />
    <inkscape:perspective
       id="perspective3452"
       inkscape:persp3d-origin="30 : 20 : 1"
       inkscape:vp_z="60 : 30 : 1"
       inkscape:vp_y="0 : 1000 : 0"
       inkscape:vp_x="0 : 30 : 1"
       sodipodi:type="inkscape:persp3d" />
    <symbol
       viewBox="244.5 110 489 219.9"
       id="symbol-university">
      <path
         id="path4460"
         d="M79,43l57,119c0,0,21-96,104-96s124,106,124,106l43-133l82-17L0,17L79,43z" />
      <path
         id="path4462"
         d="M94,176l-21,39"
         stroke-width="20"
         stroke="#000000"
         fill="none" />
      <path
         id="path4464"
         d="M300,19c0,10.5-22.6,19-50.5,19S199,29.5,199,19s22.6-19,50.5-19S300,8.5,300,19z" />
      <path
         id="path4466"
         d="M112,216l-16-38L64,88c0,0-9-8-4-35s16-24,16-24"
         stroke-width="20"
         stroke="#000000"
         ill="none" />
    </symbol>
    <inkscape:perspective
       id="perspective4471"
       inkscape:persp3d-origin="372.04724 : 350.78739 : 1"
       inkscape:vp_z="744.09448 : 526.18109 : 1"
       inkscape:vp_y="0 : 1000 : 0"
       inkscape:vp_x="0 : 526.18109 : 1"
       sodipodi:type="inkscape:persp3d" />
    <inkscape:perspective
       id="perspective4668"
       inkscape:persp3d-origin="6 : 4 : 1"
       inkscape:vp_z="12 : 6 : 1"
       inkscape:vp_y="0 : 1000 : 0"
       inkscape:vp_x="0 : 6 : 1"
       sodipodi:type="inkscape:persp3d" />
  </defs>
  <g
     id="g1327">
    <path
       d="M 66.275,1.768 C 24.94,1.768 1.704,23.139 1.704,66.804 L 1.704,516.927 C 1.704,557.771 22.599,579.156 63.896,579.156 L 515.92,579.156 C 557.227,579.156 578.149,558.841 578.149,516.927 L 578.149,66.804 C 578.149,24.203 557.227,1.768 514.628,1.768 C 514.624,1.768 66.133,1.625 66.275,1.768 z "
       style="fill:#111;stroke:#eee;stroke-width:3.40799999"
       id="path1329" />
  </g>
  <path
     style="fill:#ffffff"
     d="M 248.09432,58.028507 162.46755,300.07189 c -24.371,9.245 -47.0101,16.91902 -58.2781,25.68202 l -19.271481,0 c 0,0 -6.424625,1.92656 -5.140625,8.35156 l 8.185547,14.32226 c -28.697,7.622 -49.941407,34.98794 -49.941407,67.58594 0,38.494 29.624969,69.70117 66.167966,69.70117 36.545,0 66.16993,-31.20717 66.16993,-69.70117 0,-22.146 -9.8039,-41.87458 -25.0879,-54.64258 3.437,-3.42 8.07202,-6.41456 14.16602,-7.35156 16.703,-2.569 21.8418,-6.42383 21.8418,-6.42383 l -0.90039,-3 78.99414,-23.70898 23.09179,33.60547 c 17.987,1.864 43.60721,12.30101 56.53321,25.91601 4.666,4.917 11.64754,13.87241 14.93554,19.69141 l 47.69336,0.81445 10.2793,12.20508 20.99023,4.66406 c 6.434,26.563 27.97355,46.08985 53.56055,46.08985 30.665,0 55.52344,-28.04372 55.52344,-62.63672 -10e-4,-34.593 -24.85844,-62.63477 -55.52344,-62.63477 -23.16,0 -43.00303,15.99652 -51.33203,38.72852 l -27.7168,-7.25 12.84961,-46.25391 7.06446,-2.5664 35.97656,0 25.05469,-21.84571 -14.7754,-8.35156 -26.98046,-41.75586 c 0,0 -5.78204,-7.06641 -12.20704,-7.06641 -6.425,0 -78.37393,-8.352 -132.33593,0 -53.75994,8.32042 -48.88389,7.08587 -63.45508,14.06446 l -3.34553,1.64358 -2.49822,1.55564 c -0.3109,0.18654 -0.60739,0.34795 -0.92188,0.54101 l 0.19922,0 -32.16601,24.08399 c -1.08539,1.13263 -0.65559,0.71581 -2.134,1.4707 0,0 -4.07991,1.03589 -12.61991,4.21289 L 264.19531,63.867188 Z m 119.63224,195.729303 16.91211,40.08594 -7.51562,15.6582 -78.91797,11.27344 -7.82813,-16.91211 37.26563,-43.82031 z m 16.91211,0 46.29492,0 20.72266,30.68946 -37.58008,2.81835 z m -138.63511,6.95841 64.10386,-0.6713 -26.12695,33.79883 -74.58594,-8.10352 32.83594,-24.58593 z m 252.58238,118.29355 c 10.272,0 18.59765,10.21173 18.59765,22.80273 0,12.596 -8.32665,22.80469 -18.59765,22.80469 -10.271,0 -18.59961,-10.20869 -18.59961,-22.80469 0,-12.591 8.32761,-22.80273 18.59961,-22.80273 z m -379.94336,12.26757 c 12.242,0 22.16406,11.36291 22.16406,25.37891 0,14.014 -9.92306,25.375 -22.16406,25.375 -12.24,0 -22.162111,-11.361 -22.162111,-25.375 0,-14.016 9.922111,-25.37891 22.162111,-25.37891 z"
     id="path11"
     inkscape:connector-curvature="0"
     sodipodi:nodetypes="ccccccssscccccccccccscsccccccccssccccccccccccccccccccccccccccssssssssss" />
  <path
     style="fill:#ffffff"
     inkscape:connector-curvature="0"
     d="m 231.829,260.043 -0.021,0.016 c 0.009,-0.005 0.017,-0.01 0.026,-0.016 l -0.005,0 z"
     id="path15" />
  <path
     style="fill:#ffffff"
     inkscape:connector-curvature="0"
     d="m 217.79105,381.50205 c 14.752,-15.541 35.49525,-25.62712 49.1029,-26.47585 l -11.94294,-17.64185 -63.31166,20.04041 c 1.931,5.515 5.0936,12.14323 -4.6264,14.57423 -12.848,3.214 -14.27622,1.04562 -14.27622,1.04562 5.4038,8.47619 8.58259,16.95239 9.8954,25.42859 l 24.34187,2.4428 -1.20276,0 c 3.289,-5.82 7.35281,-14.49695 12.01981,-19.41395 z"
     id="path17"
     sodipodi:nodetypes="cccccccccc" />
  <path
     style="fill:#ffffff"
     inkscape:connector-curvature="0"
     d="m 292.912,368.07 c -2.761,-0.523 -5.578,-0.879 -8.44,-1.063 -1.463,-0.092 -2.937,-0.146 -4.422,-0.146 -25.096,0 -47.186,13.536 -60.061,34.053 -7.512,11.97 -11.89,26.315 -11.89,41.738 0,41.859 32.213,75.793 71.95,75.793 39.736,0 71.951,-33.934 71.951,-75.793 0,-15.423 -4.378,-29.769 -11.891,-41.738 -10.622,-16.926 -27.516,-29.101 -47.197,-32.844 z m 2.856,102.874 c -13.312,0 -24.101,-12.353 -24.101,-27.593 0,-15.237 10.789,-27.592 24.101,-27.592 13.309,0 24.1,12.354 24.1,27.592 -10e-4,15.241 -10.792,27.593 -24.1,27.593 z"
     id="path19" />
</svg>

<svg width="580" height="580" viewBox="0 0 580 580" fill="none" xmlns="http://www.w3.org/2000/svg">
<g clip-path="url(#clip0)">
<path d="M66.275 1.76815C24.94 1.76815 1.70398 23.1391 1.70398 66.8041V516.927C1.70398 557.771 22.599 579.156 63.896 579.156H515.92C557.227 579.156 578.149 558.841 578.149 516.927V66.8041C578.149 24.2031 557.227 1.76815 514.628 1.76815C514.624 1.76815 66.133 1.62515 66.275 1.76815Z" fill="#111111" stroke="#EEEEEE" stroke-width="3.408"/>
<path d="M248.094 58.0283L162.468 300.072C138.097 309.317 115.457 316.991 104.189 325.754H84.918C84.918 325.754 78.4933 327.68 79.7773 334.105L87.9629 348.428C59.2659 356.05 38.0215 383.415 38.0215 416.013C38.0215 454.507 67.6465 485.715 104.189 485.715C140.734 485.715 170.359 454.507 170.359 416.013C170.359 393.867 160.555 374.139 145.271 361.371C148.708 357.951 153.344 354.956 159.438 354.019C176.14 351.45 181.279 347.596 181.279 347.596L180.379 344.596L259.373 320.887L282.465 354.492C300.452 356.356 326.072 366.793 338.998 380.408C343.664 385.325 350.646 394.28 353.934 400.099L401.627 400.914L411.906 413.119L432.896 417.783C439.33 444.346 460.87 463.873 486.457 463.873C517.122 463.873 541.98 435.829 541.98 401.236C541.979 366.643 517.122 338.601 486.457 338.601C463.297 338.601 443.454 354.598 435.125 377.33L407.408 370.08L420.258 323.826L427.322 321.26H463.299L488.354 299.414L473.578 291.062L446.598 249.306C446.598 249.306 440.816 242.24 434.391 242.24C427.966 242.24 356.017 233.888 302.055 242.24C248.295 250.56 253.171 249.326 238.6 256.305L235.254 257.948L232.756 259.504C232.445 259.69 232.148 259.852 231.834 260.045H232.033L199.867 284.129C198.782 285.261 199.212 284.845 197.733 285.599C197.733 285.599 193.653 286.635 185.113 289.812L264.195 63.867L248.094 58.0283ZM367.727 253.758L384.639 293.844L377.123 309.502L298.205 320.775L290.377 303.863L327.643 260.043L367.727 253.758ZM384.639 253.758H430.934L451.656 284.447L414.076 287.265L384.639 253.758ZM246.004 260.716L310.107 260.045L283.98 293.844L209.395 285.74L242.23 261.154L246.004 260.716ZM498.586 379.01C508.858 379.01 517.184 389.221 517.184 401.812C517.184 414.408 508.857 424.617 498.586 424.617C488.315 424.617 479.986 414.408 479.986 401.812C479.986 389.221 488.314 379.01 498.586 379.01ZM118.643 391.277C130.885 391.277 140.807 402.64 140.807 416.656C140.807 430.67 130.884 442.031 118.643 442.031C106.403 442.031 96.4805 430.67 96.4805 416.656C96.4805 402.64 106.403 391.277 118.643 391.277Z" fill="white"/>
<path d="M231.829 260.043L231.808 260.059C231.817 260.054 231.825 260.049 231.834 260.043H231.829V260.043Z" fill="white"/>
<path d="M217.791 381.502C232.543 365.961 253.286 355.875 266.894 355.026L254.951 337.384L191.639 357.425C193.57 362.94 196.733 369.568 187.013 371.999C174.165 375.213 172.737 373.045 172.737 373.045C178.14 381.521 181.319 389.997 182.632 398.473L206.974 400.916H205.771C209.06 395.096 213.124 386.419 217.791 381.502V381.502Z" fill="white"/>
<path d="M292.912 368.07C290.151 367.547 287.334 367.191 284.472 367.007C283.009 366.915 281.535 366.861 280.05 366.861C254.954 366.861 232.864 380.397 219.989 400.914C212.477 412.884 208.099 427.229 208.099 442.652C208.099 484.511 240.312 518.445 280.049 518.445C319.785 518.445 352 484.511 352 442.652C352 427.229 347.622 412.883 340.109 400.914C329.487 383.988 312.593 371.813 292.912 368.07V368.07ZM295.768 470.944C282.456 470.944 271.667 458.591 271.667 443.351C271.667 428.114 282.456 415.759 295.768 415.759C309.077 415.759 319.868 428.113 319.868 443.351C319.867 458.592 309.076 470.944 295.768 470.944Z" fill="white"/>
</g>
<defs>
<clipPath id="clip0">
<path d="M0 0H580V580H0V0Z" fill="white"/>
</clipPath>
</defs>
</svg>
